X: 702
T: Zhuyngtai xiashan
%%abc-version 2.0
%%abcx-abcm2ps-target-version 5.9.1 (29 Sep 2008)
%%abc-creator hum2abc beta
%%abcx-conversion-date 2013/10/02 07:52:30
%%abc-edited-by Helmut Schaffrath
%%humdrum-veritas 2359276889
%%humdrum-veritas-data 2299198937
%%continueall 1
%%barnumbers 0
L: 1/8
M: 2/4
K: F
c A c d [I:setbarnb 1]| 
A G c A | 
c c E F | 
G4 | 
c2A A | 
G DF2 | 
E E D F | 
G4 | 
c2c2 | 
A c d d | 
f Ac2- | 
c2A c | 
f dc2 | 
A c G G | 
A cG2 | 
c2G F | 
C D F D | 
F4 |]  



